resources/img/hazards/changed-seasonal-patterns.svg

<?xml version="1.0" encoding="UTF-8"?>
<svg width="250px" height="250px" viewBox="0 0 250 250" version="1.1" xmlns="http://www.w3.org/2000/svg" xmlns:xlink="http://www.w3.org/1999/xlink">
    <!-- Generator: Sketch 48.2 (47327) - http://www.bohemiancoding.com/sketch -->
    <title>Images/Hazards/Changed seasonal patterns</title>
    <desc>Created with Sketch.</desc>
    <defs>
        <polygon id="path-1" points="0.242203279 0.000376190476 75.3019993 0.000376190476 75.3019993 158 0.242203279 158"></polygon>
    </defs>
    <g id="Library-Symbols" stroke="none" stroke-width="1" fill="none" fill-rule="evenodd">
        <g id="Images/Hazards/Changed-seasonal-patterns">
            <circle id="Oval-2" fill="#BFEFE9" cx="125" cy="125" r="125"></circle>
            <g id="Page-1" transform="translate(52.000000, 46.000000)">
                <path d="M101,79 C101,73.2561538 99.5646075,67.923654 96.6925722,63 C93.8205369,58.0775963 89.9232212,54.1804329 84.9993748,51.3085098 C80.0767788,48.4365867 74.7428203,47 69,47 L69,111 C74.7428203,111 80.0767788,109.563413 84.9993748,106.69274 C89.9232212,103.820817 93.8205369,99.923654 96.6925722,95 C99.5646075,90.076346 101,84.7438462 101,79 Z" id="Fill-1" fill="#15514B"></path>
                <g id="Group-5" transform="translate(69.000000, 0.000000)">
                    <mask id="mask-2" fill="white">
                        <use xlink:href="#path-1"></use>
                    </mask>
                    <g id="Clip-4"></g>
                    <path d="M72.9081705,96.5897889 L57.270859,83.3202968 C55.8405639,82.0863921 55.1254164,80.6455825 55.1254164,79.0003762 C55.1254164,77.3539159 55.8405639,75.9143603 57.270859,74.6792016 L72.9081705,61.4097095 C75.157023,59.5588524 75.8210885,57.2954397 74.9016131,54.6207254 C73.9808918,51.9460111 72.193023,50.5064556 69.5355148,50.3008048 L48.6865967,48.7571698 C47.0507279,48.551519 45.7225967,47.7803286 44.6997115,46.4435984 C43.6780721,45.1056143 43.3715803,43.614646 43.7802361,41.9681857 L48.6865967,21.6012333 C49.5039082,18.926519 48.7376787,16.7671857 46.3866623,15.1207254 C44.0356459,13.475519 41.7357115,13.3726937 39.4881049,14.8122492 L21.7041049,25.9224079 C20.2738098,26.7450111 18.7911869,26.8992492 17.2587279,26.3851222 C15.7262689,25.8709952 14.5501377,24.7900746 13.7328262,23.1448683 L6.06803934,4.01182063 C5.0451541,1.33710635 3.10403934,0.000376190476 0.242203279,0.000376190476 L0.242203279,37.0313127 C7.80482623,37.0313127 14.7544656,38.9335825 21.0911213,42.7406302 C27.427777,46.5464238 32.4873836,51.6375349 36.2686951,58.0152175 C40.0500066,64.3929 41.9412852,71.3875349 41.9412852,79.0003762 C41.9412852,86.6119635 40.0500066,93.6065984 36.2686951,99.984281 C32.4873836,106.361963 27.427777,111.454329 21.0911213,115.260122 C14.7544656,119.065916 7.80482623,120.968186 0.242203279,120.968186 L0.242203279,158.000376 C3.10403934,158.000376 5.0451541,156.662392 6.06803934,153.987678 L13.7328262,134.855884 C14.5501377,133.209424 15.7262689,132.129757 17.2587279,131.61563 C18.7911869,131.100249 20.2738098,131.255741 21.7041049,132.078344 L39.4881049,143.187249 C41.7357115,144.628059 44.0356459,144.525233 46.3866623,142.878773 C48.7376787,141.233567 49.5039082,139.072979 48.6865967,136.398265 L43.7802361,116.031313 C43.3715803,114.384852 43.6780721,112.893884 44.6997115,111.557154 C45.7225967,110.21917 47.0507279,109.447979 48.6865967,109.242329 L69.5355148,107.698694 C72.193023,107.493043 73.9808918,106.053487 74.9016131,103.378773 C75.8210885,100.704059 75.157023,98.4419 72.9081705,96.5897889" id="Fill-3" fill="#15514B" mask="url(#mask-2)"></path>
                </g>
                <path d="M69,0 C66.948534,0 65.2058505,0.719777778 63.7694492,2.1605873 C62.3342981,3.60014286 61.6167225,5.34942857 61.6167225,7.40593651 L61.6167225,26.5389841 L52.3870007,14.813127 C51.1568711,13.3723175 49.5154483,12.601127 47.4639823,12.4983016 C45.4137664,12.3954762 43.6698328,13.0124286 42.2346816,14.3491587 C40.7982804,15.6871429 39.978194,17.3837619 39.7731724,19.4415238 C39.5681509,21.4992857 40.1832156,23.2473175 41.6196169,24.686873 L61.6167225,44.438127 L61.6167225,66.0389841 L43.1572788,55.2385556 L36.3890661,27.7728889 C35.7740013,25.9220317 34.5438718,24.5326349 32.6974274,23.6072063 C30.8509829,22.6817778 28.9545333,22.5275397 27.005578,23.1444921 C25.0578729,23.7614444 23.6214717,24.9966032 22.6988745,26.8474603 C21.7762774,28.6995714 21.6225112,30.5504286 22.237576,32.4025397 L27.774409,46.2889841 L11.468942,36.7224603 C9.62374775,35.6942063 7.72604792,35.4371429 5.77834283,35.9512698 C3.82938761,36.4653968 2.39423649,37.6478889 1.47038921,39.5 C0.547792057,41.3521111 0.342770468,43.254381 0.85532444,45.2093175 C1.36787841,47.163 2.44549188,48.6552222 4.08566459,49.6834762 L20.3911315,59.25 L5.93210902,61.4105873 C3.880643,61.8218889 2.29172569,62.9015556 1.16285682,64.6508413 C0.0352380855,66.398873 -0.272294297,68.2509841 0.240259674,70.2046667 C0.752813645,72.1596032 1.83042712,73.7019841 3.47059983,74.8343175 C5.11202267,75.9653968 6.95721696,76.3252857 9.00868298,75.9139841 L35.7740013,68.1995714 L56.6937042,79 L35.7740013,89.8004286 L9.00868298,82.0860159 C6.95721696,81.6747143 5.11202267,82.0346032 3.47059983,83.1656825 C1.83042712,84.2980159 0.752813645,85.8403968 0.240259674,87.7953333 C-0.272294297,89.7490159 0.0352380855,91.601127 1.16285682,93.3491587 C2.29172569,95.0984444 3.880643,96.1781111 5.93210902,96.5894127 L20.3911315,98.75 L4.08566459,108.316524 C2.44549188,109.344778 1.36787841,110.837 0.85532444,112.790683 C0.342770468,114.745619 0.547792057,116.647889 1.47038921,118.5 C2.39423649,120.352111 3.82938761,121.534603 5.77834283,122.04873 C7.72604792,122.562857 9.62374775,122.305794 11.468942,121.27754 L27.774409,111.711016 L22.237576,125.59746 C21.6225112,127.655222 21.8275328,129.557492 22.8526407,131.306778 C23.8777487,133.05481 25.3141499,134.238556 27.1593442,134.855508 C29.0057887,135.47246 30.8509829,135.318222 32.6974274,134.392794 C34.5438718,133.467365 35.7740013,132.077968 36.3890661,130.227111 L43.1572788,102.761444 L61.6167225,91.9610159 L61.6167225,113.563127 L41.6196169,133.313127 C40.1832156,134.752683 39.5681509,136.500714 39.7731724,138.558476 C39.978194,140.616238 40.7982804,142.312857 42.2346816,143.650841 C43.6698328,144.987571 45.4137664,145.604524 47.4639823,145.501698 C49.5154483,145.398873 51.1568711,144.627683 52.3870007,143.188127 L61.6167225,131.461016 L61.6167225,150.594063 C61.6167225,152.650571 62.3342981,154.399857 63.7694492,155.839413 C65.2058505,157.280222 66.948534,158 69,158 L69,0 Z" id="Fill-6" fill="#4AA49B"></path>
            </g>
        </g>
    </g>
</svg>

<?xml version="1.0" encoding="utf-8"?>
<!-- Generator: Adobe Illustrator 24.3.0, SVG Export Plug-In . SVG Version: 6.00 Build 0)  -->
<svg version="1.1" id="Layer_1" xmlns="http://www.w3.org/2000/svg" xmlns:xlink="http://www.w3.org/1999/xlink" x="0px" y="0px"
	 viewBox="0 0 250 250" style="enable-background:new 0 0 250 250;" xml:space="preserve">
<style type="text/css">
	.st0{fill-rule:evenodd;clip-rule:evenodd;fill:#B5DAF9;}
	.st1{fill-rule:evenodd;clip-rule:evenodd;fill:#08355E;}
	.st2{filter:url(#Adobe_OpacityMaskFilter);}
	.st3{fill-rule:evenodd;clip-rule:evenodd;fill:#FFFFFF;}
	.st4{mask:url(#mask-2_1_);fill-rule:evenodd;clip-rule:evenodd;fill:#08355E;}
	.st5{fill-rule:evenodd;clip-rule:evenodd;fill:#1686E9;}
</style>
<desc>Created with Sketch.</desc>
<g id="Library-Symbols">
	<g id="Images_x2F_Hazards_x2F_Changed-seasonal-patterns">
		<circle id="Oval-2" class="st0" cx="125" cy="125" r="125"/>
		<g id="Page-1" transform="translate(52.000000, 46.000000)">
			<path id="Fill-1" class="st1" d="M101,79c0-5.7-1.4-11.1-4.3-16c-2.9-4.9-6.8-8.8-11.7-11.7C80.1,48.4,74.7,47,69,47v64
				c5.7,0,11.1-1.4,16-4.3c4.9-2.9,8.8-6.8,11.7-11.7C99.6,90.1,101,84.7,101,79z"/>
			<g id="Group-5" transform="translate(69.000000, 0.000000)">
				<g id="Clip-4">
				</g>
				<defs>
					<filter id="Adobe_OpacityMaskFilter" filterUnits="userSpaceOnUse" x="0.2" y="0" width="75.1" height="158">
						<feColorMatrix  type="matrix" values="1 0 0 0 0  0 1 0 0 0  0 0 1 0 0  0 0 0 1 0"/>
					</filter>
				</defs>
				<mask maskUnits="userSpaceOnUse" x="0.2" y="0" width="75.1" height="158" id="mask-2_1_">
					<g class="st2">
						<polygon id="path-1_1_" class="st3" points="0.2,0 75.3,0 75.3,158 0.2,158 						"/>
					</g>
				</mask>
				<path id="Fill-3" class="st4" d="M72.9,96.6L57.3,83.3c-1.4-1.2-2.1-2.7-2.1-4.3c0-1.6,0.7-3.1,2.1-4.3l15.6-13.3
					c2.2-1.9,2.9-4.1,2-6.8c-0.9-2.7-2.7-4.1-5.4-4.3l-20.8-1.5c-1.6-0.2-3-1-4-2.3c-1-1.3-1.3-2.8-0.9-4.5l4.9-20.4
					c0.8-2.7,0.1-4.8-2.3-6.5c-2.4-1.6-4.7-1.7-6.9-0.3L21.7,25.9c-1.4,0.8-2.9,1-4.4,0.5s-2.7-1.6-3.5-3.2L6.1,4c-1-2.7-3-4-5.8-4
					v37c7.6,0,14.5,1.9,20.8,5.7c6.3,3.8,11.4,8.9,15.2,15.3s5.7,13.4,5.7,21c0,7.6-1.9,14.6-5.7,21c-3.8,6.4-8.8,11.5-15.2,15.3
					S7.8,121,0.2,121v37c2.9,0,4.8-1.3,5.8-4l7.7-19.1c0.8-1.6,2-2.7,3.5-3.2c1.5-0.5,3-0.4,4.4,0.5l17.8,11.1
					c2.2,1.4,4.5,1.3,6.9-0.3c2.4-1.6,3.1-3.8,2.3-6.5L43.8,116c-0.4-1.6-0.1-3.1,0.9-4.5c1-1.3,2.4-2.1,4-2.3l20.8-1.5
					c2.7-0.2,4.4-1.6,5.4-4.3C75.8,100.7,75.2,98.4,72.9,96.6"/>
			</g>
			<path id="Fill-6" class="st5" d="M69,0c-2.1,0-3.8,0.7-5.2,2.2c-1.4,1.4-2.2,3.2-2.2,5.2v19.1l-9.2-11.7
				c-1.2-1.4-2.9-2.2-4.9-2.3c-2.1-0.1-3.8,0.5-5.2,1.9c-1.4,1.3-2.3,3-2.5,5.1c-0.2,2.1,0.4,3.8,1.8,5.2l20,19.8V66L43.2,55.2
				l-6.8-27.5c-0.6-1.9-1.8-3.2-3.7-4.2c-1.8-0.9-3.7-1.1-5.7-0.5c-1.9,0.6-3.4,1.9-4.3,3.7c-0.9,1.9-1.1,3.7-0.5,5.6l5.5,13.9
				l-16.3-9.6c-1.8-1-3.7-1.3-5.7-0.8c-1.9,0.5-3.4,1.7-4.3,3.5c-0.9,1.9-1.1,3.8-0.6,5.7c0.5,2,1.6,3.4,3.2,4.5l16.3,9.6L5.9,61.4
				c-2.1,0.4-3.6,1.5-4.8,3.2c-1.1,1.7-1.4,3.6-0.9,5.6c0.5,2,1.6,3.5,3.2,4.6C5.1,76,7,76.3,9,75.9l26.8-7.7L56.7,79L35.8,89.8
				L9,82.1C7,81.7,5.1,82,3.5,83.2c-1.6,1.1-2.7,2.7-3.2,4.6c-0.5,2-0.2,3.8,0.9,5.6c1.1,1.7,2.7,2.8,4.8,3.2l14.5,2.2l-16.3,9.6
				c-1.6,1-2.7,2.5-3.2,4.5c-0.5,2-0.3,3.9,0.6,5.7c0.9,1.9,2.4,3,4.3,3.5c1.9,0.5,3.8,0.3,5.7-0.8l16.3-9.6l-5.5,13.9
				c-0.6,2.1-0.4,4,0.6,5.7c1,1.7,2.5,2.9,4.3,3.5c1.8,0.6,3.7,0.5,5.5-0.5c1.8-0.9,3.1-2.3,3.7-4.2l6.8-27.5L61.6,92v21.6l-20,19.8
				c-1.4,1.4-2.1,3.2-1.8,5.2c0.2,2.1,1,3.8,2.5,5.1c1.4,1.3,3.2,2,5.2,1.9c2.1-0.1,3.7-0.9,4.9-2.3l9.2-11.7v19.1
				c0,2.1,0.7,3.8,2.2,5.2c1.4,1.4,3.2,2.2,5.2,2.2V0z"/>
		</g>
	</g>
</g>
</svg>
